X:224
T:Watchung
C:John McGann
N:From the CD by the Beacon Hillbillies "More Songs of Love and Murder" Tabledited by Mike Stangeland 
L:1/8
Q:1/4=240
M:4/4
K:C
z8 |: "Am"[A3A3]B AG EG | Ac eg ed cd | [ee]e ec A2 [A2A2] | z2 ^FG "D"AG FD | 
"Am"[A3A3]B AG EG | Ac eg ed cd | [e2e2] [a2e2] [a2e2] [a2e2] |1 [ae]"G"d ge dc B2 :|2 [ae]"G"d ge dc d2 | 
M:3/4
|: "Am"[e3e3]c Ac | "G"d3B GB | "F"c3A FA | 
M:4/4
"E"Bd B^G AG E2 | "D"[D2D2] DE DC G,B, | "C"CE Gc AG EC | "D"DD D^F DC A,C | "E"E^G Bg ed cd | 
"Am"[e2e2] [ae][ae] [ae][ae] [ae][ae] | c'b cg ed cd | "C"[ee]e ze c'2 aa | "D"ac' a^f gf dA | 
"F"cf dc AG FA | "E"Bd B^G AG EG | A"D"c AG ED CB, |1 A,8 :|2 A,"Am"A, G,C A,4 | 
 

